X:91
T:Reel 91
M:4/4
K:Dmaj
L:1/8
FG|ADFD EDCB,|A,DFD ECEC|A,DFD EDCA,|ABcA G2FE|ADFD ECA,G|ADFD E2FG|AdBd cdBd|AFEF G2FG|AD (3DEF GFEC|ADFD G2FG|AD (3FED AGEC|A,DCD EFGE|AG (3FED EA, (3CB,A, |ADFA G2FG|Adcd BcAB|AFDF G2FE|
